exported-svg/file-text.svg

<svg height="24" viewBox="0 0 24 24" width="24" xmlns="http://www.w3.org/2000/svg"><path d="m15 3.70710678v4.29289322h4.2928932zm5 5.29289322h-5.5c-.2761424 0-.5-.22385763-.5-.5v-5.5h-7.5c-.82842712 0-1.5.67157288-1.5 1.5v16c0 .8284271.67157288 1.5 1.5 1.5h12c.8284271 0 1.5-.6715729 1.5-1.5zm-5.5-7c.1326082 0 .2597852.05267842.3535534.14644661l6 6c.0937682.09376819.1464466.22094515.1464466.35355339v12c0 1.3807119-1.1192881 2.5-2.5 2.5h-12c-1.38071187 0-2.5-1.1192881-2.5-2.5v-16c0-1.38071187 1.11928813-2.5 2.5-2.5zm2 11c.2761424 0 .5.2238576.5.5s-.2238576.5-.5.5h-8c-.27614237 0-.5-.2238576-.5-.5s.22385763-.5.5-.5zm0 4c.2761424 0 .5.2238576.5.5s-.2238576.5-.5.5h-8c-.27614237 0-.5-.2238576-.5-.5s.22385763-.5.5-.5zm-6-8c.2761424 0 .5.22385763.5.5s-.2238576.5-.5.5h-2c-.27614237 0-.5-.22385763-.5-.5s.22385763-.5.5-.5z"/></svg>

<?xml version="1.0" encoding="UTF-8"?>
<svg width="24px" height="24px" viewBox="0 0 24 24" version="1.1" xmlns="http://www.w3.org/2000/svg" xmlns:xlink="http://www.w3.org/1999/xlink">
    <!-- Generator: Sketch 55.2 (78181) - https://sketchapp.com -->
    <title>file-text</title>
    <desc>Created with Sketch.</desc>
    <g id="file-text" stroke="none" stroke-width="1" fill="none" fill-rule="evenodd">
        <path d="M15,3.70710678 L15,8 L19.2928932,8 L15,3.70710678 Z M20,9 L14.5,9 C14.2238576,9 14,8.77614237 14,8.5 L14,3 L6.5,3 C5.67157288,3 5,3.67157288 5,4.5 L5,20.5 C5,21.3284271 5.67157288,22 6.5,22 L18.5,22 C19.3284271,22 20,21.3284271 20,20.5 L20,9 Z M14.5,2 C14.6326082,2 14.7597852,2.05267842 14.8535534,2.14644661 L20.8535534,8.14644661 C20.9473216,8.2402148 21,8.36739176 21,8.5 L21,20.5 C21,21.8807119 19.8807119,23 18.5,23 L6.5,23 C5.11928813,23 4,21.8807119 4,20.5 L4,4.5 C4,3.11928813 5.11928813,2 6.5,2 L14.5,2 Z" id="Combined-Shape" fill="#000000" fill-rule="nonzero"></path>
        <path d="M16.5,13 L8.5,13 C8.22385763,13 8,13.2238576 8,13.5 C8,13.7761424 8.22385763,14 8.5,14 L16.5,14 C16.7761424,14 17,13.7761424 17,13.5 C17,13.2238576 16.7761424,13 16.5,13 Z" id="Shape" fill="#000000" fill-rule="nonzero"></path>
        <path d="M16.5,17 L8.5,17 C8.22385763,17 8,17.2238576 8,17.5 C8,17.7761424 8.22385763,18 8.5,18 L16.5,18 C16.7761424,18 17,17.7761424 17,17.5 C17,17.2238576 16.7761424,17 16.5,17 Z" id="Shape" fill="#000000" fill-rule="nonzero"></path>
        <path d="M10.5,9 L8.5,9 C8.22385763,9 8,9.22385763 8,9.5 C8,9.77614237 8.22385763,10 8.5,10 L10.5,10 C10.7761424,10 11,9.77614237 11,9.5 C11,9.22385763 10.7761424,9 10.5,9 Z" id="Shape" fill="#000000" fill-rule="nonzero"></path>
    </g>
</svg>
